X:012
T:Broken Bridge Hornpipe +
B:NFID.194b
012broken
S:DOD
L:1/8
M:C
R:hornpipe
Q:280
K:A
ed|(3cec Ac BAFA|EAce aecA|GABc dcde|gfdc BEGB|
cB (3ABc BAFC|EAce ae^de|gfdB FAcB|Aaga A2:|
cd|(3efe ^de aece|gfdB F2f2|(3efe ^de fedc|BAGF E2cd|
(3efe ^de aece|gfdB F2f2|eagf (3efe (3dcB|Aaga A2:|
= = =
P:simplified version in G
K:G
dc|B2GB AGEG|DGBd gdBG|FGAB cBcd|fecB ADFA|
BAGB AGEB,|DGBd gd^cd|fecA EGBA|Ggfg G2:|
Bc|d2^cd gdBd|fecA E2e2|d2^cd edcB|AGFE D2Bc|
d2^cd gdBd|fecA E2e2|dgfe d2cA|Ggfg G2:|

%%%

